X: 100322
T: THE DARLING STRATHSPEY
R: strathspey
B: K\"ohler's Violin Repository, v.3, 1885 p.230 #1
F: http://www.archive.org/details/klersviolinrepos03rugg
Z: 2012 John Chambers <jc:trillian.mit.edu>
M: C|
L: 1/8
K: Bdor
uf |\
c<Fc{dc}B (A>F)F>f | c<F(c>e) ~f2f<a |\
c<Fc{cd}>B (A>B)c<f | e>cA<c B3 :|
ud |\
c<f(f>g) (a>c)c>{dc}B | c<f(f>g) {b}a2gf |\
c<f(f>g) (a>f)c<a | e>cA<c ~B2(Bd) |
c<f(f>g) (a>f)c>{dc}B | c<f(f>g) {b}a2g<b |\
f<a (g>{ag}f) (e<c)c>a | e<ca>c ~B2 "_Segue Reel."(B "^D.C."|]

%%sep 2 1 500

